icons/split-geometry-16.svg

<svg xmlns="http://www.w3.org/2000/svg" viewBox="0 0 16 16"><path d="M7 12H1V4h6v1H2v6h5zm3-8v1h5v6h-5v1h6V4zm-1 9h1v3H7v-3h1V3H7V0h3v3H9zM8 2h1V1H8zm1 12H8v1h1z"/><path fill="none" d="M0 0h16v16H0z"/></svg>

<svg id="icons" xmlns="http://www.w3.org/2000/svg" viewBox="0 0 16 16"><defs><style>.cls-1{fill:none;}</style></defs><path d="M7,12H1V4H7V5H2v6H7Zm3-8V5h5v6H10v1h6V4ZM9,13h1v3H7V13H8V3H7V0h3V3H9ZM8,2H9V1H8ZM9,14H8v1H9Z"/><rect class="cls-1" width="16" height="16"/></svg>
